src/assets/filled/CpuSetting.svg

<?xml version="1.0" encoding="UTF-8"?>
<svg width="24" height="24" viewBox="0 0 24 24" xmlns="http://www.w3.org/2000/svg">
 <path d="M4.09 8.08C4.04 8.38 4 8.68 4 9C4 8.69 4.04 8.38 4.09 8.08ZM4 15C4 15.32 4.04 15.62 4.09 15.92C4.04 15.62 4 15.31 4 15ZM8.09 19.91C8.38 19.96 8.69 20 9 20C8.69 20 8.39 19.96 8.09 19.91ZM8.09 4.09C8.39 4.04 8.69 4 9 4C8.69 4 8.38 4.04 8.09 4.09ZM15.92 4.09C15.62 4.04 15.32 4 15 4C15.31 4 15.62 4.04 15.92 4.09ZM19.91 8.08C19.96 8.38 20 8.69 20 9C20 8.68 19.96 8.38 19.91 8.08Z"/>
 <path d="m22 8.3c0 0.42-0.33 0.75-0.75 0.75h-1.25v1.8371c0 0.3336-0.362 0.5413-0.65 0.3729-0.43-0.25-0.93-0.33-1.41-0.2-0.3079 0.0739-0.68-0.1251-0.68-0.4417v-0.8783c0-1.65-1.35-3-3-3h-4.52c-1.65 0-3 1.35-3 3v4.52c0 1.65 1.35 3 3 3h0.45c0.116 0 0.21 0.094 0.21 0.21 0 0.9635 0.6982 1.7736 1.6175 1.9598 0.1729 0.035 0.2898 0.2418 0.2325 0.4085-0.0328 0.0954-0.1198 0.1617-0.2207 0.1617h-2.9693v1.25c0 0.41-0.34 0.75-0.75 0.75-0.42 0-0.75-0.34-0.75-0.75v-1.47c-1.6-0.49-2.85-1.74-3.33-3.33h-1.48c-0.41 0-0.75-0.34-0.75-0.75 0-0.42 0.34-0.75 0.75-0.75h1.25v-2.2h-1.25c-0.41 0-0.75-0.34-0.75-0.75 0-0.42 0.34-0.75 0.75-0.75h1.25v-2.2h-1.25c-0.41 0-0.75-0.33-0.75-0.75 0-0.41 0.34-0.75 0.75-0.75h1.48c0.48-1.59 1.73-2.84 3.33-3.33v-1.47c0-0.41 0.33-0.75 0.75-0.75 0.41 0 0.75 0.34 0.75 0.75v1.25h2.19v-1.25c0-0.41 0.34-0.75 0.75-0.75s0.75 0.34 0.75 0.75v1.25h2.2v-1.25c0-0.41 0.34-0.75 0.75-0.75s0.75 0.34 0.75 0.75v1.48c1.59 0.48 2.84 1.73 3.32 3.32h1.48c0.42 0 0.75 0.34 0.75 0.75z"/>
 <path d="m20.99 15.53c-0.68 0-1.07-0.34-1.07-0.84 0-0.2 0.06-0.43 0.2-0.67 0.28-0.48 0.11-1.1-0.37-1.37l-0.91-0.53c-0.42-0.25-0.96-0.1-1.21 0.32l-0.06 0.1c-0.48 0.83-1.26 0.83-1.74 0l-0.06-0.1c-0.24-0.42-0.79-0.57-1.2-0.32l-0.92 0.53c-0.32 0.18-0.51 0.52-0.51 0.87 0 0.17 0.05 0.34 0.14 0.5 0.14 0.24 0.21 0.47 0.21 0.67 0 0.5-0.4 0.84-1.08 0.84-0.55 0-1.01 0.45-1.01 1v0.94c0 0.55 0.46 1 1.01 1 0.68 0 1.08 0.34 1.08 0.84 0 0.2-0.07 0.43-0.21 0.67-0.28 0.48-0.11 1.1 0.37 1.37l0.92 0.53c0.41 0.25 0.96 0.1 1.2-0.32l0.06-0.1c0.48-0.83 1.26-0.83 1.74 0l0.06 0.1c0.25 0.42 0.79 0.57 1.21 0.32l0.91-0.53c0.32-0.18 0.51-0.52 0.51-0.87 0-0.17-0.05-0.34-0.14-0.5-0.14-0.24-0.2-0.47-0.2-0.67 0-0.5 0.39-0.84 1.07-0.84 0.56 0 1.01-0.45 1.01-1v-0.94c0-0.55-0.45-1-1.01-1zm-4.29 3.19c-0.95 0-1.72-0.77-1.72-1.72s0.77-1.72 1.72-1.72 1.72 0.77 1.72 1.72-0.77 1.72-1.72 1.72z"/>
 <path d="m16.25 10.02v0.5725c0 0.3341-0.4453 0.5459-0.77 0.4675-0.5-0.13-1-0.06-1.41 0.19l-0.91 0.53c-0.63 0.35-1.02 1.02-1.02 1.74 0 0.0596 0.0025 0.1196 0.0075 0.1796 0.0328 0.3862-0.2372 0.8549-0.5882 1.0195-0.4826 0.2263-0.8614 0.6386-1.0428 1.1433-0.0776 0.2161-0.2669 0.3876-0.4965 0.3876-1.26 0-2.27-1.01-2.27-2.27v-3.96c0-1.26 1.01-2.27 2.27-2.27h3.96c1.26 0 2.27 1.01 2.27 2.27z"/>
</svg>

<svg width="24" height="24" viewBox="0 0 24 24"  xmlns="http://www.w3.org/2000/svg">
<path d="M4.09 8.08C4.04 8.38 4 8.68 4 9C4 8.69 4.04 8.38 4.09 8.08ZM4 15C4 15.32 4.04 15.62 4.09 15.92C4.04 15.62 4 15.31 4 15ZM8.09 19.91C8.38 19.96 8.69 20 9 20C8.69 20 8.39 19.96 8.09 19.91ZM8.09 4.09C8.39 4.04 8.69 4 9 4C8.69 4 8.38 4.04 8.09 4.09ZM15.92 4.09C15.62 4.04 15.32 4 15 4C15.31 4 15.62 4.04 15.92 4.09ZM19.91 8.08C19.96 8.38 20 8.69 20 9C20 8.68 19.96 8.38 19.91 8.08Z" />
<path d="M22 8.3C22 8.72 21.67 9.05 21.25 9.05H20V10.8871C20 11.2207 19.638 11.4284 19.35 11.26C18.92 11.01 18.42 10.93 17.94 11.06C17.6321 11.1339 17.26 10.9349 17.26 10.6183V9.74C17.26 8.09 15.91 6.74 14.26 6.74H9.74C8.09 6.74 6.74 8.09 6.74 9.74V14.26C6.74 15.91 8.09 17.26 9.74 17.26H10.19C10.306 17.26 10.4 17.354 10.4 17.47C10.4 18.4335 11.0982 19.2436 12.0175 19.4298C12.1904 19.4648 12.3073 19.6716 12.25 19.8383C12.2172 19.9337 12.1302 20 12.0293 20H9.06V21.25C9.06 21.66 8.72 22 8.31 22C7.89 22 7.56 21.66 7.56 21.25V19.78C5.96 19.29 4.71 18.04 4.23 16.45H2.75C2.34 16.45 2 16.11 2 15.7C2 15.28 2.34 14.95 2.75 14.95H4V12.75H2.75C2.34 12.75 2 12.41 2 12C2 11.58 2.34 11.25 2.75 11.25H4V9.05H2.75C2.34 9.05 2 8.72 2 8.3C2 7.89 2.34 7.55 2.75 7.55H4.23C4.71 5.96 5.96 4.71 7.56 4.22V2.75C7.56 2.34 7.89 2 8.31 2C8.72 2 9.06 2.34 9.06 2.75V4H11.25V2.75C11.25 2.34 11.59 2 12 2C12.41 2 12.75 2.34 12.75 2.75V4H14.95V2.75C14.95 2.34 15.29 2 15.7 2C16.11 2 16.45 2.34 16.45 2.75V4.23C18.04 4.71 19.29 5.96 19.77 7.55H21.25C21.67 7.55 22 7.89 22 8.3Z" />
<path d="M20.9899 15.5295C20.3099 15.5295 19.9199 15.1895 19.9199 14.6895C19.9199 14.4895 19.9799 14.2595 20.1199 14.0195C20.3999 13.5395 20.2299 12.9195 19.7499 12.6495L18.8399 12.1195C18.4199 11.8695 17.8799 12.0195 17.6299 12.4395L17.5699 12.5395C17.0899 13.3695 16.3099 13.3695 15.8299 12.5395L15.7699 12.4395C15.5299 12.0195 14.9799 11.8695 14.5699 12.1195L13.6499 12.6495C13.3299 12.8295 13.1399 13.1695 13.1399 13.5195C13.1399 13.6895 13.1899 13.8595 13.2799 14.0195C13.4199 14.2595 13.4899 14.4895 13.4899 14.6895C13.4899 15.1895 13.0899 15.5295 12.4099 15.5295C11.8599 15.5295 11.3999 15.9795 11.3999 16.5295V17.4695C11.3999 18.0195 11.8599 18.4695 12.4099 18.4695C13.0899 18.4695 13.4899 18.8095 13.4899 19.3095C13.4899 19.5095 13.4199 19.7395 13.2799 19.9795C12.9999 20.4595 13.1699 21.0795 13.6499 21.3495L14.5699 21.8795C14.9799 22.1295 15.5299 21.9795 15.7699 21.5595L15.8299 21.4595C16.3099 20.6295 17.0899 20.6295 17.5699 21.4595L17.6299 21.5595C17.8799 21.9795 18.4199 22.1295 18.8399 21.8795L19.7499 21.3495C20.0699 21.1695 20.2599 20.8295 20.2599 20.4795C20.2599 20.3095 20.2099 20.1395 20.1199 19.9795C19.9799 19.7395 19.9199 19.5095 19.9199 19.3095C19.9199 18.8095 20.3099 18.4695 20.9899 18.4695C21.5499 18.4695 21.9999 18.0195 21.9999 17.4695V16.5295C21.9999 15.9795 21.5499 15.5295 20.9899 15.5295ZM16.6999 18.7195C15.7499 18.7195 14.9799 17.9495 14.9799 16.9995C14.9799 16.0495 15.7499 15.2795 16.6999 15.2795C17.6499 15.2795 18.4199 16.0495 18.4199 16.9995C18.4199 17.9495 17.6499 18.7195 16.6999 18.7195Z" />
<path d="M16.25 10.02V10.5925C16.25 10.9266 15.8047 11.1384 15.48 11.06C14.98 10.93 14.48 11 14.07 11.25L13.16 11.78C12.53 12.13 12.14 12.8 12.14 13.52C12.14 13.5796 12.1425 13.6396 12.1475 13.6996C12.1803 14.0858 11.9103 14.5545 11.5593 14.7191C11.0767 14.9454 10.6979 15.3577 10.5165 15.8624C10.4389 16.0785 10.2496 16.25 10.02 16.25C8.76 16.25 7.75 15.24 7.75 13.98V10.02C7.75 8.76 8.76 7.75 10.02 7.75H13.98C15.24 7.75 16.25 8.76 16.25 10.02Z" />
</svg>
